X: 70
T: POLKA: Ballinafad
C: C: Trad.; S: Seamus Hernon
C: Set Leaders: Mars, Anton
Z: Mars Agliullin ed., Anton Zille ed.; gian marco at The Session
N: https://thesession.org/members/26966/sets/94260
R: Polka
M: 2/4
L: 1/8
Q: 1/4=140
K: Gmaj
BB/A/ BB/A/|BG G>B|AG FG|AB cd|
B/c/B/A/ B/c/B/A/|BG G>B|AG FE|D2 DB/c/|
de d>B|cA d2|BG EF|GF ED|
B/c/B/A/ B/c/B/A/|BG GG/E/|DG F/G/A/F/|G2 G2||
|:b2 b/a/g/f/|g2ge|f2 f/e/d/B/|c2cd/c/|
BG gd|cA B/c/d|1 e2 f2|g2 d2:|2 e2 f2|g2 g2||

